dist/img/icons/conditions__icons/Handshake.svg

<svg width="22" height="22" viewBox="0 0 22 22" fill="none" xmlns="http://www.w3.org/2000/svg">
<path d="M20.6867 10.466L18.5625 11.5281L15.8125 6.26169L17.9583 5.18879C18.1195 5.10819 18.3059 5.09411 18.4774 5.14961C18.6489 5.2051 18.7917 5.32572 18.8752 5.48549L20.9886 9.53289C21.0309 9.61382 21.0566 9.70236 21.0643 9.79334C21.072 9.88431 21.0614 9.97591 21.0333 10.0628C21.0052 10.1496 20.9601 10.23 20.9006 10.2993C20.841 10.3685 20.7683 10.4252 20.6867 10.466V10.466Z" stroke="white" stroke-width="1.5" stroke-linecap="round" stroke-linejoin="round"/>
<path d="M3.43781 11.4358L1.31363 10.3737C1.23197 10.3329 1.15926 10.2762 1.09974 10.207C1.04023 10.1378 0.995097 10.0574 0.966988 9.97049C0.938879 9.88363 0.928353 9.79203 0.936026 9.70105C0.943698 9.61008 0.969415 9.52154 1.01168 9.44061L3.12513 5.39321C3.20856 5.23343 3.3514 5.11281 3.52288 5.05732C3.69437 5.00183 3.88079 5.0159 4.04201 5.09651L6.18781 6.16941L3.43781 11.4358Z" stroke="white" stroke-width="1.5" stroke-linecap="round" stroke-linejoin="round"/>
<path d="M18.5625 11.5281L17.1875 13.1367L14.0252 16.299C13.9413 16.3829 13.837 16.4437 13.7226 16.4754C13.6082 16.5071 13.4875 16.5086 13.3724 16.4798L8.39169 15.2346C8.29827 15.2113 8.2108 15.1686 8.13494 15.1092L3.4375 11.436" stroke="white" stroke-width="1.5" stroke-linecap="round" stroke-linejoin="round"/>
<path d="M17.1877 13.1367L13.4065 10.3867L12.3065 11.2117C11.8305 11.5687 11.2515 11.7617 10.6565 11.7617C10.0615 11.7617 9.48248 11.5687 9.00647 11.2117L8.54062 10.8623C8.46183 10.8032 8.39665 10.7279 8.3495 10.6414C8.30235 10.5549 8.27434 10.4593 8.26735 10.3611C8.26037 10.2628 8.27458 10.1642 8.30903 10.0719C8.34347 9.97965 8.39734 9.89585 8.46699 9.8262L11.8301 6.46308C11.8939 6.39924 11.9697 6.3486 12.0531 6.31405C12.1366 6.2795 12.226 6.26172 12.3162 6.26172H15.8127" stroke="white" stroke-width="1.5" stroke-linecap="round" stroke-linejoin="round"/>
<path d="M6.2373 6.16968L10.6476 4.88392C10.8052 4.83799 10.9739 4.84993 11.1235 4.91758L14.0942 6.26179" stroke="white" stroke-width="1.5" stroke-linecap="round" stroke-linejoin="round"/>
<path d="M9.625 18.2928L7.03489 17.6453C6.92979 17.619 6.83238 17.5682 6.75061 17.4972L4.8125 15.8125" stroke="white" stroke-width="1.5" stroke-linecap="round" stroke-linejoin="round"/>
</svg>

<svg width="22" height="22" fill="none" xmlns="http://www.w3.org/2000/svg"><path d="M20.687 10.466l-2.125 1.062-2.75-5.266 2.146-1.073a.687.687 0 01.917.296l2.114 4.048a.687.687 0 01-.302.933v0zm-17.249.97l-2.124-1.062a.687.687 0 01-.302-.933l2.113-4.048a.687.687 0 01.917-.296l2.146 1.072-2.75 5.267z" stroke="#fff" stroke-width="1.5" stroke-linecap="round" stroke-linejoin="round"/><path d="M18.563 11.528l-1.375 1.609-3.163 3.162a.688.688 0 01-.653.18l-4.98-1.244a.685.685 0 01-.257-.126l-4.697-3.673" stroke="#fff" stroke-width="1.5" stroke-linecap="round" stroke-linejoin="round"/><path d="M17.188 13.137l-3.781-2.75-1.1.825a2.75 2.75 0 01-3.3 0l-.466-.35a.687.687 0 01-.074-1.036l3.363-3.363a.687.687 0 01.486-.201h3.497" stroke="#fff" stroke-width="1.5" stroke-linecap="round" stroke-linejoin="round"/><path d="M6.237 6.17l4.41-1.286a.688.688 0 01.476.034l2.971 1.344M9.625 18.293l-2.59-.648a.689.689 0 01-.284-.148l-1.939-1.684" stroke="#fff" stroke-width="1.5" stroke-linecap="round" stroke-linejoin="round"/></svg>
